X: 136007
T: JACKSONS JIG
Q: "Irish Jig."
R: Jig.
%R: jig
B: James Kerr "Merry Melodies" v.1 p.36 s.0 #7
Z: 2016 John Chambers <jc:trillian.mit.edu>
M: 6/8
L: 1/8
K: D
|:\
vD2vF uE2uF | DFA AFA | BAB def | gfg ecA |\
vD2vF uE2uF | DFA AFA | BAB ud2ue | fdd d3 :|
[|\
fed faf | gbg faf | fed faf | gfg ue2ug |\
fed faf | gbg fed | BAB d2e | fee e2"_D.C."f |]

%%sep 1 1 500
%%sep 1 1 500

